X:1
T: Gentleman's Delight
N:
C:Tune is "Duke of Buckingham" by Mendham
S:
A:
O:
R:
M:4/4
K:D
I:speed 200
%W: A1
% voice 1 (1 lines, 34 notes)
K:D
M:4/4
L:1/16
A4 |d4 A4 d4 a4 |f6 e2 d4 e2 f2 |g4 f4 e4 d4 |e2 f2 g2 f2 e4 A4 |d4 A4 d4 a4 |f6 g2 a4 d4 |b4 a4 g4 f4 |e12 A4 |
%W: A2
% voice 1 (1 lines, 33 notes)
d4 A4 d4 a4 |f6 e2 d4 e2 f2 |g4 f4 e4 d4 |e2 f2 g2 f2 e4 A4 |d4 A4 d4 a4 |f6 g2 a4 d4 |b4 a4 g4 f4 |e12 a4 |
%W: B1
% voice 1 (1 lines, 34 notes)
f6 e2 d4 a4 |f6 e2 d4 A4 |B2 c2 d4 g4 f4 |e2 d2 e2 f2 e4 a4 |f6 e2 d4 A4 |B6 c2 d4 b4 |a4 g2 f2 e6 d2 |d12 a4 |
%W: B2
% voice 1 (1 lines, 33 notes)
f6 e2 d4 a4 |f6 e2 d4 A4 |B2 c2 d4 g4 f4 |e2 d2 e2 f2 e4 a4 |f6 e2 d4 A4 |B6 c2 d4 b4 |a4 g2 f2 e6 d2 |d12 ||
